X:1
T:Little Brown Church in the Vale
T:William Savage Pitts, 1857
T:Little Brown Church in the Vale
T:Public Domain
T:Public Domain
T:Public Domain
C:William Savage Pitts, 1857
Z:Public Domain
%%score ( 1 2 ) ( 3 4 )
L:1/8
M:none
K:Bb
V:1 treble 
V:2 treble 
V:3 bass 
V:4 bass 
V:1
 [DF]>[DF] | [DF]2 [EG]>[DF] [DF][DF][FB]>[Fc] | [Fd]4 [Fc]2 [Fc]2 | F2 [FA][FB] [Ac]2 [FB]>[EA] | %4
w: 1.~There’s a|church in the val- ley by the|wild- wood, No|love- li- er spot in the|
w: 2.~Ho- w|sweet on a cle- ar, Sab- bath|morn- ing, To|list to the clear ring- ing|
w: 3.~The- re,|close by the chu- rch in the|val- ley, Lies|one that I lo- ved so|
w: 4.~The- re,|close by the si- de of that|loved one, To|trees where the wild flow- ers|
w: 5.~From the|church in the val- ley by the|wild- wood, When|day fades a- way in- to|
 [DB]6 (BA) | [EG]2 [EG]>[EG] [GB]2 [FA]>[EG] | (F2 B2) [DF]2 [EA]>[EG] | %7
w: dale; No *|is so dear to my child-|hood, * As the lit-|
w: bell; Its *|nes so sweet- ly are call-|ing, * O- h, come|
w: well; She *|sweet- ly sleeps, ’neath the wil-|low, * D- is- turb|
w: bloom, When *|fare- well hymn shall be chan-|ted * I shall rest|
w: night, I~would *|from this spot of my child-|hood * Wing my way|
 [EF][EF] [EF]2 [EF]2 [EA]>[Ec] | [DB]4- [DB] ||"^Refrain" (FE) | D z D z D z D z | %11
w: brown church in the vale. *||||
w: the church in the vale. *||||
w: her rest in the vale. ~|~ *|~ *|~ ~ Come to|
w: her side in the tomb. *||||
w: the man- sions of light. *||||
 [DF]2 [DG]>F [DF]2 [DB]>c | [Fd]4 [Ec]2 [Ec]2 | [EF]2 [EA]>[EB] [Ec]2 [EB]>[EA] | [DB]6 (BA) | %15
w: ||||
w: ||||
w: the church in the wild- wood,|to the church|in the dale, No spot is|so dear *|
w: ||||
w: ||||
 [EG]2 [EG]>[EG] [GB]2 [FA]>[EG] | (F2 B2) [DF]2 [EA]>[EG] | [EF][EF] [EF]2 [EF]2 [EA]>[Ec] | %18
w: |||
w: |||
w: my child- hood, As the lit-|tle * brown church in|vale. * * * * *|
w: |||
w: |||
 [DB]4 |] %19
w: |
w: |
w: |
w: |
w: |
V:2
 x2 | x8 | x8 | x8 | x6 F2 | x8 | D4 x4 | x8 | x5 || x2 | x8 | x7/2 F/ x3 c/ x/ | x8 | x8 | x6 F2 | %15
w: ||||place||tle|||||||||
w: ||||to-||to|||||||||
w: ||||sleeps,||not|||||Oh, come|||to|
w: ||||the||by|||||||||
w: ||||fain||to|||||||||
 x8 | D4 x4 | x8 | x4 |] %19
w: ||||
w: ||||
w: |the|||
w: ||||
w: ||||
V:3
 [B,,B,]>[B,,B,] | [B,,B,]2 [B,,B,]>[B,,B,] [B,,B,][B,,B,][D,B,]>[F,A,] | %2
w: ~ ~|~ ~ ~ ~ ~ ~ ~|
 B,2 [D,B,]2 [F,A,]2 [F,A,]2 | [F,A,]2 [F,C][F,D] [F,E]2 [F,D]>[F,C] | [B,,B,]6 [D,B,]2 | %5
w: ~ ~ ~ ~|~ ~ ~ ~ ~ ~|~ ~|
 [E,B,]2 [E,B,]>[E,B,] [E,E]2 [E,B,]>[E,B,] | (B,2 F,2) [B,,B,]2 [E,B,]>[E,B,] | %7
w: ~ ~ ~ ~ ~ ~|~ * ~ ~ ~|
 [F,A,][F,A,] [F,A,]2 [F,A,]2 [A,C]>[F,A,] | [B,,B,]4- [B,,B,] || (DC) | %10
w: ~ ~ ~ ~ ~ O|come, *|come, *|
 [B,,B,] z [B,,F,] z [B,,F,] z [B,,F,] z | [B,,B,]2 [B,,B,]2 [B,,B,]2- [B,,B,]>[B,,B,] | %12
w: come * * *||
 [B,,B,]4 [F,A,]2 [F,A,]2 | [F,A,]2 [F,A,]>[F,A,] [F,C]2 [F,A,]>[F,A,] | [B,,B,]6 [D,B,]2 | %15
w: |||
 [E,B,]2 [E,B,]>[E,B,] [E,E]2 [E,B,]>[E,B,] | (B,2 F,2) [B,,B,]2 [E,B,]>[E,B,] | %17
w: ||
 [F,A,][F,A,] [F,A,]2 [F,A,]2 [F,C]>[F,A,] | [B,,B,]4 |] %19
w: ||
V:4
 x2 | x8 | B,2 x6 | x8 | x8 | x8 | B,,4 x4 | x8 | x5 || F,2 | x8 | x8 | x8 | x8 | x8 | x8 | %16
w: ||~||||~|||come,|||||||
 B,,4 x4 | x8 | x4 |] %19
w: |||

